X:0266
T:Pady's Resource
M:6/8
L:1/8
Q:3/8=120
I: :: ::
Z:Jack Campin * www.campin.me.uk * 2009
K:F
C|F>GF CA,C|F>GF d2c|dcB  AGF |GDD   D2
E|F>GF CA,C|F>GF d2c|c>de fcB |AFF   F2:|
A|CFA  AFD |CEG  GEC|CFA  AGF |A>BA TG2
F|F>Ac fed |cAF  G2F|AFD  C>DF|AFF   F2:|
<end>
<start>
